assets/Down-right arrow/Flat/down-right_arrow_flat.svg

<svg width="32" height="32" viewBox="0 0 32 32" fill="none" xmlns="http://www.w3.org/2000/svg">
<path d="M2 6C2 3.79086 3.79086 2 6 2H26C28.2091 2 30 3.79086 30 6V26C30 28.2091 28.2091 30 26 30H6C3.79086 30 2 28.2091 2 26V6Z" fill="#00A6ED"/>
<path d="M8.70708 10.2929L10.2929 8.70708C10.6834 8.31655 11.3166 8.31655 11.7071 8.70708L19.2929 16.2929C19.2989 16.2989 19.3049 16.3051 19.3108 16.3112C19.4345 16.4413 19.6558 16.4872 19.7827 16.3603L21.2756 14.8674C21.9038 14.2392 22.9782 14.681 22.9827 15.5694L23.0156 22.0105C23.0184 22.5668 22.5668 23.0185 22.0105 23.0156L15.5694 22.9827C14.6809 22.9782 14.2391 21.9039 14.8674 21.2757L16.3603 19.7827C16.4872 19.6558 16.4413 19.4345 16.3112 19.3108C16.3051 19.3049 16.2989 19.2989 16.2929 19.2929L8.70708 11.7071C8.31655 11.3166 8.31655 10.6834 8.70708 10.2929Z" fill="white"/>
</svg>

<svg xmlns="http://www.w3.org/2000/svg" width="32" height="32" fill="none"><path fill="#00A6ED" d="M2 6a4 4 0 0 1 4-4h20a4 4 0 0 1 4 4v20a4 4 0 0 1-4 4H6a4 4 0 0 1-4-4V6Z"/><path fill="#fff" d="m8.707 10.293 1.586-1.586a1 1 0 0 1 1.414 0l7.586 7.586.018.018c.123.13.345.176.472.05l1.493-1.494c.628-.628 1.702-.186 1.707.702l.033 6.441a1 1 0 0 1-1.005 1.006l-6.442-.033c-.888-.005-1.33-1.08-.702-1.707l1.493-1.493c.127-.127.081-.349-.049-.472a1.545 1.545 0 0 1-.018-.018l-7.586-7.586a1 1 0 0 1 0-1.414Z"/></svg>
